public/static/img/common/bill.svg

<svg width="20" height="20" viewBox="0 0 20 20" fill="none" xmlns="http://www.w3.org/2000/svg">
<g id="Frame">
<path id="Vector" d="M15.8333 18.3333H4.16663C2.78592 18.3333 1.66663 17.214 1.66663 15.8333V2.49996C1.66663 2.03973 2.03973 1.66663 2.49996 1.66663H14.1666C14.6269 1.66663 15 2.03973 15 2.49996V12.5H18.3333V15.8333C18.3333 17.214 17.214 18.3333 15.8333 18.3333ZM15 14.1666V15.8333C15 16.2935 15.373 16.6666 15.8333 16.6666C16.2935 16.6666 16.6666 16.2935 16.6666 15.8333V14.1666H15ZM4.99996 5.83329V7.49996H11.6666V5.83329H4.99996ZM4.99996 9.16663V10.8333H11.6666V9.16663H4.99996ZM4.99996 12.5V14.1666H9.16663V12.5H4.99996Z" fill="#F3FFF4"/>
</g>
</svg>

<svg width="20" height="20" fill="none" xmlns="http://www.w3.org/2000/svg"><path d="M15.833 18.333H4.167a2.5 2.5 0 0 1-2.5-2.5V2.5c0-.46.373-.833.833-.833h11.667c.46 0 .833.373.833.833v10h3.333v3.333a2.5 2.5 0 0 1-2.5 2.5ZM15 14.167v1.666a.833.833 0 1 0 1.667 0v-1.666H15ZM5 5.833V7.5h6.667V5.833H5Zm0 3.334v1.666h6.667V9.167H5ZM5 12.5v1.667h4.167V12.5H5Z" fill="#F3FFF4"/></svg>
